Sweet-Rainbow/icons/accessories-dictionary.svg

<?xml version="1.0" encoding="UTF-8" standalone="no"?>
<!-- Generator: Gravit.io -->

<svg
   xmlns:dc="http://purl.org/dc/elements/1.1/"
   xmlns:cc="http://creativecommons.org/ns#"
   xmlns:rdf="http://www.w3.org/1999/02/22-rdf-syntax-ns#"
   xmlns:svg="http://www.w3.org/2000/svg"
   xmlns="http://www.w3.org/2000/svg"
   xmlns:sodipodi="http://sodipodi.sourceforge.net/DTD/sodipodi-0.dtd"
   xmlns:inkscape="http://www.inkscape.org/namespaces/inkscape"
   style="isolation:isolate"
   viewBox="0 0 36 36"
   width="48"
   height="48"
   version="1.1"
   id="svg9"
   sodipodi:docname="accessories-dictionary.svg"
   inkscape:version="0.92.4 (5da689c313, 2019-01-14)">
  <metadata
     id="metadata15">
    <rdf:RDF>
      <cc:Work
         rdf:about="">
        <dc:format>image/svg+xml</dc:format>
        <dc:type
           rdf:resource="http://purl.org/dc/dcmitype/StillImage" />
        <dc:title></dc:title>
      </cc:Work>
    </rdf:RDF>
  </metadata>
  <defs
     id="defs13" />
  <sodipodi:namedview
     pagecolor="#ffffff"
     bordercolor="#666666"
     borderopacity="1"
     objecttolerance="10"
     gridtolerance="10"
     guidetolerance="10"
     inkscape:pageopacity="0"
     inkscape:pageshadow="2"
     inkscape:window-width="640"
     inkscape:window-height="480"
     id="namedview11"
     showgrid="false"
     inkscape:zoom="29.365243"
     inkscape:cx="25.325443"
     inkscape:cy="32"
     inkscape:current-layer="svg9"
     units="px" />
  <linearGradient
     id="_lgradient_33"
     x1="0"
     y1="0.5"
     x2="0.90748805"
     y2="0.92007786"
     gradientTransform="matrix(43,0,0,44,3,2)"
     gradientUnits="userSpaceOnUse">
    <stop
       offset="0%"
       stop-opacity="1"
       style="stop-color:rgb(69,104,220)"
       id="stop2" />
    <stop
       offset="98.69565217391305%"
       stop-opacity="1"
       style="stop-color:rgb(176,106,179)"
       id="stop4" />
  </linearGradient>
  <g
     id="g826"
     transform="matrix(0.81818182,0,0,0.81818182,-2.0454546,-1.6363637)">
    <path
       id="path7"
       d="M 14,46 H 8 C 5.24,46 3,43.76 3,41 V 14 h 4 v 25 c 0,1.656 1.344,3 3,3 V 42 6 6 C 8.344,6 7,7.344 7,9 v 5 H 3 V 7 C 3,4.24 5.24,2 8,2 h 6 2 26 c 2.208,0 4,1.792 4,4 v 22 0 c 0,1.104 -0.896,2 -2,2 v 0 c -1.104,0 -2,-0.896 -2,-2 V 28 8 C 42,6.896 41.104,6 40,6 H 16 14 v 36 h 2 24 c 1.104,0 2,-0.896 2,-2 v -2 0 c 0,-1.104 0.896,-2 2,-2 v 0 c 1.104,0 2,0.896 2,2 v 0 4 c 0,2.208 -1.792,4 -4,4 H 16 Z m 6.744,-32.492 h -0.095 v 0 q -0.224,0.671 -0.504,1.494 v 0 0 q -0.279,0.822 -0.503,1.669 v 0 h 1.981 v 0 q -0.224,-0.863 -0.455,-1.685 v 0 0 q -0.232,-0.823 -0.424,-1.478 z m 9.106,4.361 h -3.419 v 0 q -0.112,-0.176 -0.207,-0.463 v 0 0 q -0.096,-0.288 -0.096,-0.607 v 0 0 q 0,-0.591 0.271,-0.855 v 0 0 q 0.272,-0.263 0.703,-0.263 v 0 h 3.419 v 0 q 0.096,0.175 0.199,0.463 v 0 0 q 0.104,0.287 0.104,0.607 v 0 0 q 0,0.591 -0.271,0.854 v 0 0 q -0.272,0.264 -0.703,0.264 z m 2.7,-0.096 3.674,-4.377 h -3.93 v 0 Q 32.182,13.22 32.086,12.917 v 0 0 Q 31.99,12.613 31.99,12.278 v 0 0 q 0,-0.623 0.28,-0.895 v 0 0 q 0.28,-0.271 0.727,-0.271 v 0 h 5.958 v 0 q 0.703,0.575 0.703,1.533 v 0 0 q 0,0.4 -0.184,0.791 v 0 0 q -0.183,0.391 -0.471,0.743 v 0 l -3.626,4.377 h 4.089 v 0 q 0.112,0.176 0.208,0.479 v 0 0 q 0.096,0.304 0.096,0.639 v 0 0 q 0,0.623 -0.28,0.895 v 0 0 q -0.279,0.271 -0.726,0.271 v 0 H 32.47 v 0 q -0.272,-0.223 -0.448,-0.607 v 0 0 Q 31.847,19.85 31.847,19.355 v 0 0 q 0,-0.4 0.207,-0.815 v 0 0 q 0.208,-0.415 0.496,-0.767 z M 26,29 h 12 c 1.104,0 2,0.896 2,2 v 0 c 0,1.104 -0.896,2 -2,2 H 26 c -1.104,0 -2,-0.896 -2,-2 v 0 c 0,-1.104 0.896,-2 2,-2 z M 18.732,11.447 v 0 0 q 0.271,-0.159 0.822,-0.303 v 0 0 Q 20.105,11 20.665,11 v 0 0 q 0.798,0 1.413,0.232 v 0 0 q 0.615,0.231 0.791,0.726 v 0 0 q 0.288,0.831 0.623,1.933 v 0 0 q 0.335,1.103 0.671,2.277 v 0 0 q 0.335,1.174 0.655,2.316 v 0 0 q 0.319,1.142 0.559,2.021 v 0 0 q -0.192,0.223 -0.575,0.359 v 0 0 Q 24.419,21 23.891,21 v 0 0 q -0.383,0 -0.647,-0.064 v 0 0 q -0.263,-0.064 -0.431,-0.192 v 0 0 q -0.168,-0.127 -0.271,-0.335 v 0 0 Q 22.438,20.201 22.358,19.93 v 0 L 22.07,18.827 h -2.891 v 0 q -0.128,0.48 -0.256,0.991 v 0 0 q -0.127,0.511 -0.255,0.99 v 0 0 q -0.224,0.08 -0.472,0.136 v 0 0 Q 17.949,21 17.597,21 v 0 0 q -0.814,0 -1.206,-0.28 v 0 0 Q 16,20.441 16,19.946 v 0 0 q 0,-0.224 0.064,-0.448 v 0 0 q 0.064,-0.223 0.144,-0.527 v 0 0 q 0.111,-0.431 0.311,-1.07 v 0 0 q 0.2,-0.639 0.439,-1.382 v 0 0 q 0.24,-0.743 0.512,-1.525 v 0 0 q 0.271,-0.783 0.511,-1.478 v 0 0 q 0.239,-0.695 0.439,-1.238 v 0 0 q 0.2,-0.543 0.312,-0.831 z M 32,36 h 6 c 1.104,0 2,0.896 2,2 v 0 c 0,1.104 -0.896,2 -2,2 h -6 c -1.104,0 -2,-0.896 -2,-2 v 0 c 0,-1.104 0.896,-2 2,-2 z"
       style="fill:url(#_lgradient_33);fill-rule:evenodd"
       inkscape:connector-curvature="0" />
  </g>
</svg>

<?xml version="1.0" encoding="UTF-8" standalone="no"?><!-- Generator: Gravit.io --><svg xmlns="http://www.w3.org/2000/svg" xmlns:xlink="http://www.w3.org/1999/xlink" style="isolation:isolate" viewBox="0 0 48 48" width="48pt" height="48pt"><linearGradient id="_lgradient_33" x1="0" y1="0.5" x2="0.9074880558539661" y2="0.9200778838291643" gradientTransform="matrix(43,0,0,44,3,2)" gradientUnits="userSpaceOnUse"><stop offset="0%" stop-opacity="1" style="stop-color:rgb(69,104,220)"/><stop offset="98.69565217391305%" stop-opacity="1" style="stop-color:rgb(176,106,179)"/></linearGradient><path d=" M 14 46 L 8 46 C 5.24 46 3 43.76 3 41 L 3 14 L 7 14 L 7 39 C 7 40.656 8.344 42 10 42 L 10 42 L 10 6 L 10 6 C 8.344 6 7 7.344 7 9 L 7 14 L 3 14 L 3 7 C 3 4.24 5.24 2 8 2 L 14 2 L 16 2 L 42 2 C 44.208 2 46 3.792 46 6 L 46 28 L 46 28 C 46 29.104 45.104 30 44 30 L 44 30 C 42.896 30 42 29.104 42 28 L 42 28 L 42 8 C 42 6.896 41.104 6 40 6 L 16 6 L 14 6 L 14 42 L 16 42 L 40 42 C 41.104 42 42 41.104 42 40 L 42 38 L 42 38 C 42 36.896 42.896 36 44 36 L 44 36 C 45.104 36 46 36.896 46 38 L 46 38 L 46 42 C 46 44.208 44.208 46 42 46 L 16 46 L 14 46 L 14 46 L 14 46 Z  M 20.744 13.508 L 20.649 13.508 L 20.649 13.508 Q 20.425 14.179 20.145 15.002 L 20.145 15.002 L 20.145 15.002 Q 19.866 15.824 19.642 16.671 L 19.642 16.671 L 21.623 16.671 L 21.623 16.671 Q 21.399 15.808 21.168 14.986 L 21.168 14.986 L 21.168 14.986 Q 20.936 14.163 20.744 13.508 L 20.744 13.508 L 20.744 13.508 L 20.744 13.508 L 20.744 13.508 Z  M 29.85 17.869 L 26.431 17.869 L 26.431 17.869 Q 26.319 17.693 26.224 17.406 L 26.224 17.406 L 26.224 17.406 Q 26.128 17.118 26.128 16.799 L 26.128 16.799 L 26.128 16.799 Q 26.128 16.208 26.399 15.944 L 26.399 15.944 L 26.399 15.944 Q 26.671 15.681 27.102 15.681 L 27.102 15.681 L 30.521 15.681 L 30.521 15.681 Q 30.617 15.856 30.72 16.144 L 30.72 16.144 L 30.72 16.144 Q 30.824 16.431 30.824 16.751 L 30.824 16.751 L 30.824 16.751 Q 30.824 17.342 30.553 17.605 L 30.553 17.605 L 30.553 17.605 Q 30.281 17.869 29.85 17.869 L 29.85 17.869 L 29.85 17.869 L 29.85 17.869 L 29.85 17.869 Z  M 32.55 17.773 L 36.224 13.396 L 32.294 13.396 L 32.294 13.396 Q 32.182 13.22 32.086 12.917 L 32.086 12.917 L 32.086 12.917 Q 31.99 12.613 31.99 12.278 L 31.99 12.278 L 31.99 12.278 Q 31.99 11.655 32.27 11.383 L 32.27 11.383 L 32.27 11.383 Q 32.55 11.112 32.997 11.112 L 32.997 11.112 L 38.955 11.112 L 38.955 11.112 Q 39.658 11.687 39.658 12.645 L 39.658 12.645 L 39.658 12.645 Q 39.658 13.045 39.474 13.436 L 39.474 13.436 L 39.474 13.436 Q 39.291 13.827 39.003 14.179 L 39.003 14.179 L 35.377 18.556 L 39.466 18.556 L 39.466 18.556 Q 39.578 18.732 39.674 19.035 L 39.674 19.035 L 39.674 19.035 Q 39.77 19.339 39.77 19.674 L 39.77 19.674 L 39.77 19.674 Q 39.77 20.297 39.49 20.569 L 39.49 20.569 L 39.49 20.569 Q 39.211 20.84 38.764 20.84 L 38.764 20.84 L 32.47 20.84 L 32.47 20.84 Q 32.198 20.617 32.022 20.233 L 32.022 20.233 L 32.022 20.233 Q 31.847 19.85 31.847 19.355 L 31.847 19.355 L 31.847 19.355 Q 31.847 18.955 32.054 18.54 L 32.054 18.54 L 32.054 18.54 Q 32.262 18.125 32.55 17.773 L 32.55 17.773 L 32.55 17.773 L 32.55 17.773 L 32.55 17.773 Z  M 26 29 L 38 29 C 39.104 29 40 29.896 40 31 L 40 31 C 40 32.104 39.104 33 38 33 L 26 33 C 24.896 33 24 32.104 24 31 L 24 31 C 24 29.896 24.896 29 26 29 L 26 29 Z  M 18.732 11.447 L 18.732 11.447 L 18.732 11.447 Q 19.003 11.288 19.554 11.144 L 19.554 11.144 L 19.554 11.144 Q 20.105 11 20.665 11 L 20.665 11 L 20.665 11 Q 21.463 11 22.078 11.232 L 22.078 11.232 L 22.078 11.232 Q 22.693 11.463 22.869 11.958 L 22.869 11.958 L 22.869 11.958 Q 23.157 12.789 23.492 13.891 L 23.492 13.891 L 23.492 13.891 Q 23.827 14.994 24.163 16.168 L 24.163 16.168 L 24.163 16.168 Q 24.498 17.342 24.818 18.484 L 24.818 18.484 L 24.818 18.484 Q 25.137 19.626 25.377 20.505 L 25.377 20.505 L 25.377 20.505 Q 25.185 20.728 24.802 20.864 L 24.802 20.864 L 24.802 20.864 Q 24.419 21 23.891 21 L 23.891 21 L 23.891 21 Q 23.508 21 23.244 20.936 L 23.244 20.936 L 23.244 20.936 Q 22.981 20.872 22.813 20.744 L 22.813 20.744 L 22.813 20.744 Q 22.645 20.617 22.542 20.409 L 22.542 20.409 L 22.542 20.409 Q 22.438 20.201 22.358 19.93 L 22.358 19.93 L 22.07 18.827 L 19.179 18.827 L 19.179 18.827 Q 19.051 19.307 18.923 19.818 L 18.923 19.818 L 18.923 19.818 Q 18.796 20.329 18.668 20.808 L 18.668 20.808 L 18.668 20.808 Q 18.444 20.888 18.196 20.944 L 18.196 20.944 L 18.196 20.944 Q 17.949 21 17.597 21 L 17.597 21 L 17.597 21 Q 16.783 21 16.391 20.72 L 16.391 20.72 L 16.391 20.72 Q 16 20.441 16 19.946 L 16 19.946 L 16 19.946 Q 16 19.722 16.064 19.498 L 16.064 19.498 L 16.064 19.498 Q 16.128 19.275 16.208 18.971 L 16.208 18.971 L 16.208 18.971 Q 16.319 18.54 16.519 17.901 L 16.519 17.901 L 16.519 17.901 Q 16.719 17.262 16.958 16.519 L 16.958 16.519 L 16.958 16.519 Q 17.198 15.776 17.47 14.994 L 17.47 14.994 L 17.47 14.994 Q 17.741 14.211 17.981 13.516 L 17.981 13.516 L 17.981 13.516 Q 18.22 12.821 18.42 12.278 L 18.42 12.278 L 18.42 12.278 Q 18.62 11.735 18.732 11.447 L 18.732 11.447 L 18.732 11.447 L 18.732 11.447 Z  M 32 36 L 38 36 C 39.104 36 40 36.896 40 38 L 40 38 C 40 39.104 39.104 40 38 40 L 32 40 C 30.896 40 30 39.104 30 38 L 30 38 C 30 36.896 30.896 36 32 36 Z " fill-rule="evenodd" fill="url(#_lgradient_33)"/></svg>
